scalable/apps/user-info.svg

<svg height="16.000031" width="16.000202" xmlns="http://www.w3.org/2000/svg"><g fill="#bebebe"><path d="m12 8a4 4 0 0 0 -4 4 4 4 0 0 0 4 4 4 4 0 0 0 4-4 4 4 0 0 0 -4-4zm-1 1h2v1h-2zm0 2h2v4h-2z"/><path d="m8 3a3 3 0 1 1 -6 0 3 3 0 1 1 6 0z" stroke-width="1.2"/><path d="m2.4414062 6.0859375c-1.10938.36328-2.43602995 1.2877537-2.43749995 2.9023437l-.00390625 3.0117188c-.00072.554.446 1 1 1h6.1015625c-.0664027-.323511-.1015625-.65763-.1015625-1 .0000002-1.883663 1.0678982-3.5131764 2.6171875-4.3652344-.4346755-.7463476-1.195925-1.3148866-2.0625-1.5410156-.70541.62353-1.5391775.90625-2.5546875.90625s-1.8531837-.2905325-2.5585938-.9140625z"/></g></svg>

<?xml version="1.0" encoding="UTF-8" standalone="no"?>
<svg
   xmlns:dc="http://purl.org/dc/elements/1.1/"
   xmlns:cc="http://creativecommons.org/ns#"
   xmlns:rdf="http://www.w3.org/1999/02/22-rdf-syntax-ns#"
   xmlns:svg="http://www.w3.org/2000/svg"
   xmlns="http://www.w3.org/2000/svg"
   xmlns:sodipodi="http://sodipodi.sourceforge.net/DTD/sodipodi-0.dtd"
   xmlns:inkscape="http://www.inkscape.org/namespaces/inkscape"
   height="16.000031"
   width="16.000202"
   version="1.1"
   id="svg10"
   sodipodi:docname="user-info.svg"
   inkscape:version="0.92.2 2405546, 2018-03-11">
  <metadata
     id="metadata16">
    <rdf:RDF>
      <cc:Work
         rdf:about="">
        <dc:format>image/svg+xml</dc:format>
        <dc:type
           rdf:resource="http://purl.org/dc/dcmitype/StillImage" />
      </cc:Work>
    </rdf:RDF>
  </metadata>
  <defs
     id="defs14" />
  <sodipodi:namedview
     pagecolor="#ffffff"
     bordercolor="#666666"
     borderopacity="1"
     objecttolerance="10"
     gridtolerance="10"
     guidetolerance="10"
     inkscape:pageopacity="0"
     inkscape:pageshadow="2"
     inkscape:window-width="960"
     inkscape:window-height="1138"
     id="namedview12"
     showgrid="false"
     inkscape:zoom="8.5206359"
     inkscape:cx="-0.4369539"
     inkscape:cy="-8.7408061"
     inkscape:window-x="1920"
     inkscape:window-y="38"
     inkscape:window-maximized="0"
     inkscape:current-layer="svg10" />
  <path
     style="opacity:1;fill:#bebebe;fill-opacity:1;stroke:none;stroke-width:2;stroke-linecap:round;stroke-linejoin:round;stroke-miterlimit:4;stroke-dasharray:none;stroke-dashoffset:0;stroke-opacity:1;paint-order:stroke fill markers"
     d="m 12,8 a 4,4 0 0 0 -4,4 4,4 0 0 0 4,4 4,4 0 0 0 4,-4 4,4 0 0 0 -4,-4 z m -1,1 h 2 v 1 h -2 z m 0,2 h 2 v 4 h -2 z"
     id="path826"
     inkscape:connector-curvature="0" />
  <path
     style="fill:#bebebe;stroke-width:1.20000005"
     inkscape:connector-curvature="0"
     id="path4"
     d="M 8,3 A 3,3 0 1 1 2,3 3,3 0 1 1 8,3 Z" />
  <path
     style="fill:#bebebe"
     d="M 2.4414062 6.0859375 C 1.3320262 6.4492175 0.00537625 7.3736912 0.00390625 8.9882812 L 0 12 C -0.00072 12.554 0.446 13 1 13 L 7.1015625 13 C 7.0351598 12.676489 7 12.34237 7 12 C 7.0000002 10.116337 8.0678982 8.4868236 9.6171875 7.6347656 C 9.182512 6.888418 8.4212625 6.319879 7.5546875 6.09375 C 6.8492775 6.71728 6.01551 7 5 7 C 3.98449 7 3.1468163 6.7094675 2.4414062 6.0859375 z "
     id="path831" />
</svg>
